www/assets/images/test_icons/flags/MD.svg

<svg fill="none" height="15" viewBox="0 0 21 15" width="21" xmlns="http://www.w3.org/2000/svg" xmlns:xlink="http://www.w3.org/1999/xlink"><mask id="a" height="15" maskUnits="userSpaceOnUse" width="21" x="0" y="0"><path d="m19 0h-17c-1.10457 0-2 .89543-2 2v11c0 1.1046.89543 2 2 2h17c1.1046 0 2-.8954 2-2v-11c0-1.10457-.8954-2-2-2z" fill="#fff"/></mask><g mask="url(#a)"><path d="m19 0h-17c-1.10457 0-2 .89543-2 2v11c0 1.1046.89543 2 2 2h17c1.1046 0 2-.8954 2-2v-11c0-1.10457-.8954-2-2-2z" fill="#ffd300"/><g clip-rule="evenodd" fill-rule="evenodd"><path d="m0 0h7v15h-7z" fill="#0042b1"/><path d="m8 5h5v5h-5zm0 5 2.5 2 2.5-2zm2-6h1v1h-1z" fill="#b17f51"/><path d="m9 6h3v2h-3z" fill="#d30021"/><path d="m9 8h3v1.5h-3zm0 1.5 1.5 1 1.5-1z" fill="#0140be"/><path d="m10.5 7c.276 0 .5.214.5.505v.99c0 .28-.232.505-.5.505-.276 0-.5-.214-.5-.505v-.99c0-.28.232-.505.5-.505z" fill="#ffd300"/><path d="m14 0h7v15h-7z" fill="#ce0029"/></g><path d="m19 .5h-17c-.82843 0-1.5.67157-1.5 1.5v11c0 .8284.67157 1.5 1.5 1.5h17c.8284 0 1.5-.6716 1.5-1.5v-11c0-.82843-.6716-1.5-1.5-1.5z" stroke="#000" stroke-opacity=".1"/></g></svg>

<svg width="21" height="15" viewBox="0 0 21 15" fill="none" xmlns="http://www.w3.org/2000/svg">
<mask id="mask0_3_100" style="mask-type:alpha" maskUnits="userSpaceOnUse" x="0" y="0" width="21" height="15">
<path d="M19 0H2C0.89543 0 0 0.89543 0 2V13C0 14.1046 0.89543 15 2 15H19C20.1046 15 21 14.1046 21 13V2C21 0.89543 20.1046 0 19 0Z" fill="white"/>
</mask>
<g mask="url(#mask0_3_100)">
<path d="M19 0H2C0.89543 0 0 0.89543 0 2V13C0 14.1046 0.89543 15 2 15H19C20.1046 15 21 14.1046 21 13V2C21 0.89543 20.1046 0 19 0Z" fill="#FFD300"/>
<path fill-rule="evenodd" clip-rule="evenodd" d="M0 0H7V15H0V0Z" fill="#0042B1"/>
<path fill-rule="evenodd" clip-rule="evenodd" d="M8 5H13V10H8V5ZM8 10L10.5 12L13 10H8ZM10 4H11V5H10V4Z" fill="#B17F51"/>
<path fill-rule="evenodd" clip-rule="evenodd" d="M9 6H12V8H9V6Z" fill="#D30021"/>
<path fill-rule="evenodd" clip-rule="evenodd" d="M9 8H12V9.5H9V8ZM9 9.5L10.5 10.5L12 9.5H9Z" fill="#0140BE"/>
<path fill-rule="evenodd" clip-rule="evenodd" d="M10.5 7C10.776 7 11 7.214 11 7.505V8.495C11 8.775 10.768 9 10.5 9C10.224 9 10 8.786 10 8.495V7.505C10 7.225 10.232 7 10.5 7Z" fill="#FFD300"/>
<path fill-rule="evenodd" clip-rule="evenodd" d="M14 0H21V15H14V0Z" fill="#CE0029"/>
<path d="M19 0.5H2C1.17157 0.5 0.5 1.17157 0.5 2V13C0.5 13.8284 1.17157 14.5 2 14.5H19C19.8284 14.5 20.5 13.8284 20.5 13V2C20.5 1.17157 19.8284 0.5 19 0.5Z" stroke="black" stroke-opacity="0.1"/>
</g>
</svg>
